Numix-Circle/48x48/apps/steam_icon_221640.svg

<?xml version="1.0" encoding="UTF-8" standalone="no"?>
<svg
   xmlns:dc="http://purl.org/dc/elements/1.1/"
   xmlns:cc="http://creativecommons.org/ns#"
   xmlns:rdf="http://www.w3.org/1999/02/22-rdf-syntax-ns#"
   xmlns:svg="http://www.w3.org/2000/svg"
   xmlns="http://www.w3.org/2000/svg"
   xmlns:xlink="http://www.w3.org/1999/xlink"
   xmlns:sodipodi="http://sodipodi.sourceforge.net/DTD/sodipodi-0.dtd"
   xmlns:inkscape="http://www.inkscape.org/namespaces/inkscape"
   viewBox="0 0 48 48"
   id="svg2"
   version="1.1"
   inkscape:version="0.48.4 r9939"
   width="100%"
   height="100%"
   sodipodi:docname="steam_icon_221640.svg">
  <metadata
     id="metadata77">
    <rdf:RDF>
      <cc:Work
         rdf:about="">
        <dc:format>image/svg+xml</dc:format>
        <dc:type
           rdf:resource="http://purl.org/dc/dcmitype/StillImage" />
      </cc:Work>
    </rdf:RDF>
  </metadata>
  <sodipodi:namedview
     pagecolor="#ffffff"
     bordercolor="#666666"
     borderopacity="1"
     objecttolerance="10"
     gridtolerance="10"
     guidetolerance="10"
     inkscape:pageopacity="0"
     inkscape:pageshadow="2"
     inkscape:window-width="1280"
     inkscape:window-height="960"
     id="namedview75"
     showgrid="false"
     inkscape:zoom="4.9166667"
     inkscape:cx="65.296117"
     inkscape:cy="-11.604705"
     inkscape:window-x="0"
     inkscape:window-y="0"
     inkscape:window-maximized="1"
     inkscape:current-layer="svg2" />
  <defs
     id="defs4">
    <linearGradient
       id="linearGradient3764"
       x1="1"
       x2="47"
       gradientUnits="userSpaceOnUse"
       gradientTransform="matrix(0,-1,1,0,-1.5e-6,47.999998)">
      <stop
         stop-color="#380005"
         stop-opacity="1"
         id="stop7" />
      <stop
         offset="1"
         stop-color="#4c0008"
         stop-opacity="1"
         id="stop9" />
    </linearGradient>
    <clipPath
       id="clipPath-555636201">
      <g
         transform="translate(0,-1004.3622)"
         id="g12">
        <path
           d="m -24 13 c 0 1.105 -0.672 2 -1.5 2 -0.828 0 -1.5 -0.895 -1.5 -2 0 -1.105 0.672 -2 1.5 -2 0.828 0 1.5 0.895 1.5 2 z"
           transform="matrix(15.333333,0,0,11.5,414.99999,878.8622)"
           fill="#1890d0"
           id="path14" />
      </g>
    </clipPath>
    <clipPath
       id="clipPath-564913715">
      <g
         transform="translate(0,-1004.3622)"
         id="g17">
        <path
           d="m -24 13 c 0 1.105 -0.672 2 -1.5 2 -0.828 0 -1.5 -0.895 -1.5 -2 0 -1.105 0.672 -2 1.5 -2 0.828 0 1.5 0.895 1.5 2 z"
           transform="matrix(15.333333,0,0,11.5,414.99999,878.8622)"
           fill="#1890d0"
           id="path19" />
      </g>
    </clipPath>
    <linearGradient
       inkscape:collect="always"
       xlink:href="#linearGradient3764"
       id="linearGradient3078"
       gradientUnits="userSpaceOnUse"
       gradientTransform="matrix(0,-1,1,0,-1.5e-6,47.999998)"
       x1="1"
       x2="47" />
    <linearGradient
       inkscape:collect="always"
       xlink:href="#linearGradient3764"
       id="linearGradient3081"
       gradientUnits="userSpaceOnUse"
       gradientTransform="matrix(0,-1,1,0,-1.5e-6,47.999998)"
       x1="1"
       x2="47" />
    <linearGradient
       inkscape:collect="always"
       xlink:href="#linearGradient3764"
       id="linearGradient3090"
       gradientUnits="userSpaceOnUse"
       gradientTransform="matrix(0,-1,1,0,-1.5e-6,47.999998)"
       x1="1"
       x2="47" />
    <linearGradient
       inkscape:collect="always"
       xlink:href="#linearGradient3764"
       id="linearGradient3093"
       gradientUnits="userSpaceOnUse"
       gradientTransform="matrix(0,-1,1,0,-1.5e-6,47.999998)"
       x1="1"
       x2="47" />
    <linearGradient
       inkscape:collect="always"
       xlink:href="#linearGradient3764"
       id="linearGradient3102"
       gradientUnits="userSpaceOnUse"
       gradientTransform="matrix(0,-1,1,0,-1.5e-6,47.999998)"
       x1="1"
       x2="47" />
    <linearGradient
       inkscape:collect="always"
       xlink:href="#linearGradient3764"
       id="linearGradient3105"
       gradientUnits="userSpaceOnUse"
       gradientTransform="matrix(0,-1,1,0,-1.5e-6,47.999998)"
       x1="1"
       x2="47" />
    <linearGradient
       inkscape:collect="always"
       xlink:href="#linearGradient3764"
       id="linearGradient3153"
       gradientUnits="userSpaceOnUse"
       gradientTransform="matrix(0,-1,1,0,-1.5e-6,47.999998)"
       x1="1"
       x2="47" />
    <linearGradient
       inkscape:collect="always"
       xlink:href="#linearGradient3764"
       id="linearGradient3156"
       gradientUnits="userSpaceOnUse"
       gradientTransform="matrix(0,-1,1,0,-1.5e-6,47.999998)"
       x1="1"
       x2="47" />
    <linearGradient
       inkscape:collect="always"
       xlink:href="#linearGradient3764"
       id="linearGradient3165"
       gradientUnits="userSpaceOnUse"
       gradientTransform="matrix(0,-1,1,0,-1.5e-6,47.999998)"
       x1="1"
       x2="47" />
    <linearGradient
       inkscape:collect="always"
       xlink:href="#linearGradient3764"
       id="linearGradient3173"
       gradientUnits="userSpaceOnUse"
       gradientTransform="matrix(0,-1,1,0,-1.5e-6,47.999998)"
       x1="1"
       x2="47" />
    <linearGradient
       inkscape:collect="always"
       xlink:href="#linearGradient3764"
       id="linearGradient3176"
       gradientUnits="userSpaceOnUse"
       gradientTransform="matrix(0,-1,1,0,-1.5e-6,47.999998)"
       x1="1"
       x2="47" />
    <linearGradient
       inkscape:collect="always"
       xlink:href="#linearGradient3764"
       id="linearGradient3179"
       gradientUnits="userSpaceOnUse"
       gradientTransform="matrix(0,-1,1,0,-1.5e-6,47.999998)"
       x1="1"
       x2="47" />
    <linearGradient
       inkscape:collect="always"
       xlink:href="#linearGradient3764"
       id="linearGradient3182"
       gradientUnits="userSpaceOnUse"
       gradientTransform="matrix(0,-1,1,0,-1.5e-6,47.999998)"
       x1="1"
       x2="47" />
  </defs>
  <g
     id="g21">
    <path
       d="m 36.31 5 c 5.859 4.062 9.688 10.831 9.688 18.5 c 0 12.426 -10.07 22.5 -22.5 22.5 c -7.669 0 -14.438 -3.828 -18.5 -9.688 c 1.037 1.822 2.306 3.499 3.781 4.969 c 4.085 3.712 9.514 5.969 15.469 5.969 c 12.703 0 23 -10.298 23 -23 c 0 -5.954 -2.256 -11.384 -5.969 -15.469 c -1.469 -1.475 -3.147 -2.744 -4.969 -3.781 z m 4.969 3.781 c 3.854 4.113 6.219 9.637 6.219 15.719 c 0 12.703 -10.297 23 -23 23 c -6.081 0 -11.606 -2.364 -15.719 -6.219 c 4.16 4.144 9.883 6.719 16.219 6.719 c 12.703 0 23 -10.298 23 -23 c 0 -6.335 -2.575 -12.06 -6.719 -16.219 z"
       opacity="0.05"
       id="path23" />
    <path
       d="m 41.28 8.781 c 3.712 4.085 5.969 9.514 5.969 15.469 c 0 12.703 -10.297 23 -23 23 c -5.954 0 -11.384 -2.256 -15.469 -5.969 c 4.113 3.854 9.637 6.219 15.719 6.219 c 12.703 0 23 -10.298 23 -23 c 0 -6.081 -2.364 -11.606 -6.219 -15.719 z"
       opacity="0.1"
       id="path25" />
    <path
       d="m 31.25 2.375 c 8.615 3.154 14.75 11.417 14.75 21.13 c 0 12.426 -10.07 22.5 -22.5 22.5 c -9.708 0 -17.971 -6.135 -21.12 -14.75 a 23 23 0 0 0 44.875 -7 a 23 23 0 0 0 -16 -21.875 z"
       opacity="0.2"
       id="path27" />
  </g>
  <g
     id="g29">
    <path
       d="m 24 1 c 12.703 0 23 10.297 23 23 c 0 12.703 -10.297 23 -23 23 -12.703 0 -23 -10.297 -23 -23 0 -12.703 10.297 -23 23 -23 z"
       id="path31"
       fill-opacity="1"
       fill="url(#linearGradient3764)" />
  </g>
  <g
     id="g33" />
  <path
     style="opacity:0.1;fill:#000000;fill-opacity:1;fill-rule:nonzero;stroke:none"
     d="M 22.53125,29.125 23.875,47 c 0.04212,2.27e-4 0.08282,0 0.125,0 0.261258,0 0.522096,-0.02261 0.78125,-0.03125 L 23.5,29.53125 z"
     id="path45"
     inkscape:connector-curvature="0"
     sodipodi:nodetypes="ccsccc" />
  <path
     style="opacity:0.1;fill:#000000;fill-opacity:1;fill-rule:nonzero;stroke:none"
     inkscape:connector-curvature="0"
     id="path49"
     d="M 10.371,32.891 24.481,43.2 39.383,36.348 44.203,20.032 31.246,7.653 l -0.84,1.855 11.941,10.879 -4.293,14.727 -13.641,6.512 -12.535,-9.578 4.289,-12.5 -1.426,-0.707 m -4.371,14.05" />
  <path
     style="fill:#6f000b;fill-opacity:1;fill-rule:nonzero;stroke:none"
     d="M 46.3125 18.4375 L 29.3125 21.6875 L 28.3125 26.25 L 41.875 38.46875 C 45.080557 34.515765 47 29.486183 47 24 C 47 22.080539 46.75548 20.219869 46.3125 18.4375 z "
     id="path63" />
  <path
     style="opacity:0.1;fill:#000000;fill-opacity:1;fill-rule:nonzero;stroke:none"
     d="M 32.0625,2.46875 25.625,19.21875 18.8125,21.8125 4.375,12 c -0.044385,0.07252 -0.081396,0.145699 -0.125,0.21875 l 15.5625,10.59375 6.8125,-2.59375 6.625,-17.25 c -0.395585,-0.1743969 -0.78126,-0.346798 -1.1875,-0.5 z"
     id="path51"
     inkscape:connector-curvature="0"
     sodipodi:nodetypes="ccccccccc" />
  <path
     style="fill:#6f000b;fill-opacity:1;fill-rule:nonzero;stroke:none"
     d="M 18.375 26.8125 L 3.75 34.90625 C 7.6161329 42.075068 15.169546 46.953607 23.875 47 L 22.5 28.53125 L 18.375 26.8125 z "
     id="path61" />
  <path
     style="fill:#e4162f;fill-opacity:1;fill-rule:nonzero;stroke:none"
     inkscape:connector-curvature="0"
     id="path65"
     d="M 9.371,31.891 23.481,42.2 38.383,35.348 43.203,19.032 30.246,6.653 29.406,8.508 41.347,19.387 37.054,34.114 23.413,40.626 10.878,31.048 15.167,18.548 13.741,17.841 M 9.37,31.891" />
  <path
     style="fill:#6f000b;fill-opacity:1;fill-rule:nonzero;stroke:none"
     d="M 24 1 C 15.688526 1 8.4161849 5.3940234 4.375 12 L 18.8125 21.8125 L 25.625 19.21875 L 32.0625 2.46875 C 29.551898 1.5281741 26.839052 1 24 1 z "
     id="path67" />
  <path
     style="fill:none;stroke:#e4162f;stroke-width:0.99921256;stroke-linecap:butt;stroke-linejoin:miter;stroke-miterlimit:4;stroke-opacity:1"
     inkscape:connector-curvature="0"
     id="path69"
     stroke-miterlimit="4"
     d="m 19.112598,22.032283 6.519685,-2.522835 3.862204,2.25 -1.218897,4.5 -5.711811,2.25 -4.074803,-1.683071 m 0.612992,-4.783464" />
  <g
     id="g71">
    <path
       d="m 40.03 7.531 c 3.712 4.084 5.969 9.514 5.969 15.469 0 12.703 -10.297 23 -23 23 c -5.954 0 -11.384 -2.256 -15.469 -5.969 4.178 4.291 10.01 6.969 16.469 6.969 c 12.703 0 23 -10.298 23 -23 0 -6.462 -2.677 -12.291 -6.969 -16.469 z"
       opacity="0.1"
       id="path73" />
  </g>
  <path
     id="use3187"
     d="M 24,1 C 15.688526,1 8.4161849,5.3940234 4.375,12 l 14.4375,9.8125 6.8125,-2.59375 6.4375,-16.75 C 29.551898,1.5281741 26.839052,1 24,1 z"
     style="fill:#6f000b;fill-opacity:1;fill-rule:nonzero;stroke:none"
     inkscape:connector-curvature="0" />
</svg>

<svg xmlns="http://www.w3.org/2000/svg" viewBox="0 0 48 48"><defs><linearGradient id="linearGradient3764" x1="1" x2="47" gradientUnits="userSpaceOnUse" gradientTransform="matrix(0,-1,1,0,-1.5e-6,47.999998)"><stop stop-color="#380005" stop-opacity="1"/><stop offset="1" stop-color="#4c0008" stop-opacity="1"/></linearGradient><clipPath><g transform="translate(0,-1004.3622)"><path d="m -24 13 c 0 1.105 -0.672 2 -1.5 2 -0.828 0 -1.5 -0.895 -1.5 -2 0 -1.105 0.672 -2 1.5 -2 0.828 0 1.5 0.895 1.5 2 z" transform="matrix(15.333333,0,0,11.5,414.99999,878.8622)" fill="#1890d0"/></g></clipPath><clipPath><g transform="translate(0,-1004.3622)"><path d="m -24 13 c 0 1.105 -0.672 2 -1.5 2 -0.828 0 -1.5 -0.895 -1.5 -2 0 -1.105 0.672 -2 1.5 -2 0.828 0 1.5 0.895 1.5 2 z" transform="matrix(15.333333,0,0,11.5,414.99999,878.8622)" fill="#1890d0"/></g></clipPath></defs><g><path d="m 36.31 5 c 5.859 4.062 9.688 10.831 9.688 18.5 c 0 12.426 -10.07 22.5 -22.5 22.5 c -7.669 0 -14.438 -3.828 -18.5 -9.688 c 1.037 1.822 2.306 3.499 3.781 4.969 c 4.085 3.712 9.514 5.969 15.469 5.969 c 12.703 0 23 -10.298 23 -23 c 0 -5.954 -2.256 -11.384 -5.969 -15.469 c -1.469 -1.475 -3.147 -2.744 -4.969 -3.781 z m 4.969 3.781 c 3.854 4.113 6.219 9.637 6.219 15.719 c 0 12.703 -10.297 23 -23 23 c -6.081 0 -11.606 -2.364 -15.719 -6.219 c 4.16 4.144 9.883 6.719 16.219 6.719 c 12.703 0 23 -10.298 23 -23 c 0 -6.335 -2.575 -12.06 -6.719 -16.219 z" opacity="0.05"/><path d="m 41.28 8.781 c 3.712 4.085 5.969 9.514 5.969 15.469 c 0 12.703 -10.297 23 -23 23 c -5.954 0 -11.384 -2.256 -15.469 -5.969 c 4.113 3.854 9.637 6.219 15.719 6.219 c 12.703 0 23 -10.298 23 -23 c 0 -6.081 -2.364 -11.606 -6.219 -15.719 z" opacity="0.1"/><path d="m 31.25 2.375 c 8.615 3.154 14.75 11.417 14.75 21.13 c 0 12.426 -10.07 22.5 -22.5 22.5 c -9.708 0 -17.971 -6.135 -21.12 -14.75 a 23 23 0 0 0 44.875 -7 a 23 23 0 0 0 -16 -21.875 z" opacity="0.2"/></g><g><path d="m 24 1 c 12.703 0 23 10.297 23 23 c 0 12.703 -10.297 23 -23 23 -12.703 0 -23 -10.297 -23 -23 0 -12.703 10.297 -23 23 -23 z" fill-opacity="1" fill="url(#linearGradient3764)"/></g><path d="m 22.531 29.13 1.344 17.875 c 0.042 0 0.083 0 0.125 0 0.261 0 0.522 -0.023 0.781 -0.031 l -1.281 -17.438 z" opacity="0.1" fill="#000" fill-rule="nonzero" stroke="none" fill-opacity="1"/><path d="M 10.371,32.891 24.481,43.2 39.383,36.348 44.203,20.032 31.246,7.653 l -0.84,1.855 11.941,10.879 -4.293,14.727 -13.641,6.512 -12.535,-9.578 4.289,-12.5 -1.426,-0.707 m -4.371,14.05" opacity="0.1" fill="#000" fill-rule="nonzero" stroke="none" fill-opacity="1"/><path d="m 46.31 18.438 l -17 3.25 l -1 4.563 l 13.563 12.219 c 3.206 -3.953 5.125 -8.983 5.125 -14.469 c 0 -1.919 -0.245 -3.78 -0.688 -5.563 z" fill="#6f000b" fill-rule="nonzero" stroke="none" fill-opacity="1"/><path d="m 32.06 2.469 -6.438 16.75 -6.813 2.594 -14.438 -9.813 c -0.044 0.073 -0.081 0.146 -0.125 0.219 l 15.563 10.594 6.813 -2.594 6.625 -17.25 c -0.396 -0.174 -0.781 -0.347 -1.188 -0.5 z" opacity="0.1" fill="#000" fill-rule="nonzero" stroke="none" fill-opacity="1"/><path d="m 18.375 26.813 l -14.625 8.094 c 3.866 7.169 11.42 12.05 20.13 12.09 l -1.375 -18.469 l -4.125 -1.719 z" fill="#6f000b" fill-rule="nonzero" stroke="none" fill-opacity="1"/><path d="M 9.371,31.891 23.481,42.2 38.383,35.348 43.203,19.032 30.246,6.653 29.406,8.508 41.347,19.387 37.054,34.114 23.413,40.626 10.878,31.048 15.167,18.548 13.741,17.841 M 9.37,31.891" fill="#e4162f" fill-rule="nonzero" stroke="none" fill-opacity="1"/><path d="m 24 1 c -8.311 0 -15.584 4.394 -19.625 11 l 14.438 9.813 l 6.813 -2.594 l 6.438 -16.75 c -2.511 -0.941 -5.223 -1.469 -8.06 -1.469 z" fill="#6f000b" fill-rule="nonzero" stroke="none" fill-opacity="1"/><path stroke-miterlimit="4" d="m 19.11 22.03 6.52 -2.523 3.862 2.25 -1.219 4.5 -5.712 2.25 -4.075 -1.683 m 0.613 -4.783" stroke-opacity="1" fill="none" stroke="#e4162f" stroke-linejoin="miter" stroke-linecap="butt" stroke-width="0.999"/><g><path d="m 40.03 7.531 c 3.712 4.084 5.969 9.514 5.969 15.469 0 12.703 -10.297 23 -23 23 c -5.954 0 -11.384 -2.256 -15.469 -5.969 4.178 4.291 10.01 6.969 16.469 6.969 c 12.703 0 23 -10.298 23 -23 0 -6.462 -2.677 -12.291 -6.969 -16.469 z" opacity="0.1"/></g><path d="m 24 1 c -8.311 0 -15.584 4.394 -19.625 11 l 14.438 9.813 6.813 -2.594 6.438 -16.75 c -2.511 -0.941 -5.223 -1.469 -8.06 -1.469 z" fill="#6f000b" fill-rule="nonzero" stroke="none" fill-opacity="1"/></svg>
